X: 22
T: Swallow's Tail, The
Z: John E Roche
S: https://thesession.org/tunes/105#setting46889
R: reel
M: 4/4
L: 1/8
K: Dmaj
eAcA eAcA|cdef g2 fe|d2 BG DGBG|cdef g2 fg|
eAcA eAcA|cdef g2 fg|afge fded|cdec A4:|
a2 b2 aged|cdef g2 fe|d2 BG DGBG|cdef g2 fg|
a2 b2 aged|cdef g2 fg|afge fded|cdec A4:|

